packages/webapp/public/images/template-logos/asana.svg

<svg width="62" height="62" viewBox="0 0 62 62" fill="none" xmlns="http://www.w3.org/2000/svg">
<g clip-path="url(#clip0_496_912)">
<path fill-rule="evenodd" clip-rule="evenodd" d="M43.377 32.4971C38.1002 32.4971 33.8228 36.7747 33.8228 42.0517C33.8228 47.3284 38.1002 51.606 43.377 51.606C48.6537 51.606 52.9311 47.3284 52.9311 42.0517C52.9311 36.7747 48.6537 32.4971 43.377 32.4971ZM18.5542 32.4979C13.2776 32.4979 9 36.7747 9 42.0517C9 47.3284 13.2776 51.606 18.5542 51.606C23.8311 51.606 28.1089 47.3284 28.1089 42.0517C28.1089 36.7747 23.8311 32.4979 18.5542 32.4979ZM40.5196 20.554C40.5196 25.8311 36.2422 30.1091 30.9657 30.1091C25.6888 30.1091 21.4114 25.8311 21.4114 20.554C21.4114 15.278 25.6888 11 30.9657 11C36.2422 11 40.5196 15.278 40.5196 20.554Z" fill="#F06A6A"/>
</g>
<defs>
<clipPath id="clip0_496_912">
<rect width="44" height="40.7103" fill="white" transform="translate(9 11)"/>
</clipPath>
</defs>
</svg>

<svg xmlns="http://www.w3.org/2000/svg" width="62" height="62" fill="none"><g clip-path="url(#A)"><path fill-rule="evenodd" d="M43.377 32.497c-5.277 0-9.554 4.278-9.554 9.555s4.277 9.554 9.554 9.554 9.554-4.278 9.554-9.554-4.277-9.555-9.554-9.555zm-24.823.001C13.278 32.498 9 36.775 9 42.052s4.278 9.554 9.554 9.554 9.555-4.278 9.555-9.554-4.278-9.554-9.555-9.554zM40.52 20.554c0 5.277-4.277 9.555-9.554 9.555s-9.554-4.278-9.554-9.555S25.689 11 30.966 11s9.554 4.278 9.554 9.554z" fill="#f06a6a"/></g><defs><clipPath id="A"><path fill="#fff" transform="translate(9 11)" d="M0 0h44v40.71H0z"/></clipPath></defs></svg>
